packages/foundations/assets/icons/functional/images/medical/mask.svg

<svg xmlns="http://www.w3.org/2000/svg" width="32" height="32" fill="none"><path fill="#1A1C1F" fill-rule="evenodd" d="M15.413 3.021c-3.067.15-5.925 1.46-8.08 3.704a11.8 11.8 0 0 0-2.963 5.358c-.288 1.14-.453 2.785-.32 3.188.188.567.799.866 1.325.646.45-.188.652-.577.652-1.257 0-.85.254-2.186.59-3.096 1.237-3.358 4.132-5.77 7.705-6.423.752-.137 2.604-.137 3.356 0 3.573.653 6.468 3.065 7.705 6.423.34.922.59 2.247.59 3.125 0 .649.185 1.012.614 1.21.514.238 1.103-.006 1.33-.551.097-.232.104-.584.027-1.428a12.04 12.04 0 0 0-7.26-9.96c-1.586-.68-3.52-1.024-5.271-.939m-.96 12.077c-1.315.129-3.088.51-4.4.944-2.06.682-4.057 1.686-5.207 2.617l-.461.374-.881.017-.881.017-.205.163c-.535.427-.535 1.166 0 1.593l.205.164.835.017.835.016.32.677A12.7 12.7 0 0 0 8 26.091c1.746 1.459 3.97 2.439 6.347 2.797.844.127 2.475.127 3.306.001 2.937-.448 5.353-1.677 7.363-3.748 1.087-1.12 1.927-2.364 2.504-3.711l.176-.41.841-.016.84-.017.205-.164c.535-.427.535-1.166 0-1.593l-.205-.163-.877-.017-.878-.017-.464-.374c-1.999-1.609-5.664-3.034-8.971-3.489-.733-.101-2.998-.145-3.734-.072m2.374 1.969c3.125.221 6.087 1.188 8.599 2.807l.44.283-.104.266c-.343.868-1.096 2.113-1.714 2.833-1.681 1.957-3.834 3.171-6.448 3.633-.539.096-2.661.096-3.2 0-3.028-.536-5.542-2.147-7.169-4.596-.32-.481-.804-1.391-.987-1.856l-.11-.28.36-.232a18.37 18.37 0 0 1 8.546-2.853c.886-.063.964-.063 1.787-.005M11.6 19.422c-.427.235-.671.75-.558 1.175.139.522.381.668 1.571.95 1.771.419 3.406.512 5.174.293 1.06-.131 2.419-.454 2.773-.66.503-.292.577-1.063.145-1.517-.335-.353-.572-.376-1.458-.144-1.225.322-1.818.396-3.194.398-1.41.003-1.955-.06-3.192-.373-.756-.19-1.08-.222-1.261-.122m2.027 3.904c-.775.363-.795 1.514-.033 1.833.775.324 4.318.286 4.932-.053.565-.312.628-1.181.118-1.629-.242-.213-.463-.25-1.034-.178-.804.103-1.82.13-2.517.066-1.28-.117-1.3-.117-1.466-.039"/></svg>

<svg width="32" height="32" viewBox="0 0 32 32" fill="none" xmlns="http://www.w3.org/2000/svg"><path d="M15.413 3.021 C 12.346 3.171,9.488 4.481,7.333 6.725 C 5.883 8.236,4.887 10.037,4.370 12.083 C 4.082 13.223,3.917 14.868,4.050 15.271 C 4.238 15.838,4.849 16.137,5.375 15.917 C 5.825 15.729,6.027 15.340,6.027 14.660 C 6.027 13.810,6.281 12.474,6.617 11.564 C 7.854 8.206,10.749 5.794,14.322 5.141 C 15.074 5.004,16.926 5.004,17.678 5.141 C 21.251 5.794,24.146 8.206,25.383 11.564 C 25.723 12.486,25.973 13.811,25.973 14.689 C 25.973 15.338,26.158 15.701,26.587 15.899 C 27.101 16.137,27.690 15.893,27.917 15.348 C 28.014 15.116,28.021 14.764,27.944 13.920 C 27.543 9.530,24.755 5.704,20.684 3.960 C 19.098 3.280,17.164 2.936,15.413 3.021 M14.453 15.098 C 13.138 15.227,11.365 15.608,10.053 16.042 C 7.993 16.724,5.996 17.728,4.846 18.659 L 4.385 19.033 3.504 19.050 L 2.623 19.067 2.418 19.230 C 1.883 19.657,1.883 20.396,2.418 20.823 L 2.623 20.987 3.458 21.004 L 4.293 21.020 4.613 21.697 C 5.435 23.434,6.547 24.877,8.000 26.091 C 9.746 27.550,11.970 28.530,14.347 28.888 C 15.191 29.015,16.822 29.015,17.653 28.889 C 20.590 28.441,23.006 27.212,25.016 25.141 C 26.103 24.021,26.943 22.777,27.520 21.430 L 27.696 21.020 28.537 21.004 L 29.377 20.987 29.582 20.823 C 30.117 20.396,30.117 19.657,29.582 19.230 L 29.377 19.067 28.500 19.050 L 27.622 19.033 27.158 18.659 C 25.159 17.050,21.494 15.625,18.187 15.170 C 17.454 15.069,15.189 15.025,14.453 15.098 M16.827 17.067 C 19.952 17.288,22.914 18.255,25.426 19.874 L 25.866 20.157 25.762 20.423 C 25.419 21.291,24.666 22.536,24.048 23.256 C 22.367 25.213,20.214 26.427,17.600 26.889 C 17.061 26.985,14.939 26.985,14.400 26.889 C 11.372 26.353,8.858 24.742,7.231 22.293 C 6.911 21.812,6.427 20.902,6.244 20.437 L 6.134 20.157 6.494 19.925 C 9.029 18.290,12.034 17.287,15.040 17.072 C 15.926 17.009,16.004 17.009,16.827 17.067 M11.600 19.422 C 11.173 19.657,10.929 20.172,11.042 20.597 C 11.181 21.119,11.423 21.265,12.613 21.547 C 14.384 21.966,16.019 22.059,17.787 21.840 C 18.847 21.709,20.206 21.386,20.560 21.180 C 21.063 20.888,21.137 20.117,20.705 19.663 C 20.370 19.310,20.133 19.287,19.247 19.519 C 18.022 19.841,17.429 19.915,16.053 19.917 C 14.643 19.920,14.098 19.857,12.861 19.544 C 12.105 19.354,11.781 19.322,11.600 19.422 M13.627 23.326 C 12.852 23.689,12.832 24.840,13.594 25.159 C 14.369 25.483,17.912 25.445,18.526 25.106 C 19.091 24.794,19.154 23.925,18.644 23.477 C 18.402 23.264,18.181 23.227,17.610 23.299 C 16.806 23.402,15.790 23.429,15.093 23.365 C 13.813 23.248,13.793 23.248,13.627 23.326 " fill="#1A1C1F" stroke="none" fill-rule="evenodd"></path></svg>
